fs/mail_inbox_arrow_down_16_regular.svg

<svg viewBox="0 0 16 16" fill="none" xmlns="http://www.w3.org/2000/svg" height="1em" width="1em">
  <path d="M10.622 10.9987C10.5815 10.9996 10.5408 11 10.5 11C10.1555 11 9.81847 10.9683 9.49156 10.9078C9.16833 11.2881 8.6922 11.5 8 11.5C7.10266 11.5 6.56844 11.1439 6.25971 10.5264C6.14724 10.3015 6.07341 10.0554 6.03226 9.80843C6.00784 9.66189 6 9.55217 6 9.5C6 9.22386 5.77614 9 5.5 9H3V5.5C3 4.67157 3.67157 4 4.5 4H5.20703C5.30564 3.65136 5.43777 3.31679 5.59971 3H4.5C3.11929 3 2 4.11929 2 5.5V12.5C2 13.8807 3.11929 15 4.5 15H11.5C12.8807 15 14 13.8807 14 12.5V9.74284C13.6929 9.99647 13.3578 10.2174 13 10.4003V12.5C13 13.3284 12.3284 14 11.5 14H4.5C3.67157 14 3 13.3284 3 12.5V10H5.044L5.0794 10.174C5.1363 10.4257 5.22762 10.6983 5.36529 10.9736C5.83781 11.9186 6.70984 12.5 8 12.5C9.27872 12.5 10.1467 11.9289 10.622 10.9987ZM10.5 10C12.9853 10 15 7.98528 15 5.5C15 3.01472 12.9853 1 10.5 1C8.01472 1 6 3.01472 6 5.5C6 7.98528 8.01472 10 10.5 10ZM8.14645 5.85355C7.95118 5.65829 7.95118 5.34171 8.14645 5.14645C8.34171 4.95118 8.65829 4.95118 8.85355 5.14645L10 6.29289V3.5C10 3.22386 10.2239 3 10.5 3C10.7761 3 11 3.22386 11 3.5V6.29289L12.1464 5.14645C12.3417 4.95118 12.6583 4.95118 12.8536 5.14645C13.0488 5.34171 13.0488 5.65829 12.8536 5.85355L10.8536 7.85355C10.8056 7.90149 10.7504 7.93766 10.6914 7.96206C10.6333 7.98615 10.5697 7.9996 10.503 7.99999L10.5 8L10.497 7.99999C10.4303 7.9996 10.3667 7.98615 10.3086 7.96206C10.2505 7.93802 10.196 7.90256 10.1486 7.85567L10.146 7.85316L8.14645 5.85355Z" fill="#212121"/>
</svg>

<svg viewBox="0 0 16 16" fill="none" xmlns="http://www.w3.org/2000/svg" height="1em" width="1em">
  <path d="M10.622 10.999a5.494 5.494 0 0 1-1.13-.091c-.324.38-.8.592-1.492.592-.897 0-1.432-.356-1.74-.974a2.547 2.547 0 0 1-.228-.718A2.098 2.098 0 0 1 6 9.5a.5.5 0 0 0-.5-.5H3V5.5A1.5 1.5 0 0 1 4.5 4h.707c.099-.349.23-.683.393-1H4.5A2.5 2.5 0 0 0 2 5.5v7A2.5 2.5 0 0 0 4.5 15h7a2.5 2.5 0 0 0 2.5-2.5V9.743a5.507 5.507 0 0 1-1 .657v2.1a1.5 1.5 0 0 1-1.5 1.5h-7A1.5 1.5 0 0 1 3 12.5V10h2.044l.035.174c.057.252.149.524.286.8C5.838 11.919 6.71 12.5 8 12.5c1.279 0 2.147-.571 2.622-1.501ZM10.5 10a4.5 4.5 0 1 0 0-9 4.5 4.5 0 0 0 0 9ZM8.146 5.854a.5.5 0 1 1 .708-.708L10 6.293V3.5a.5.5 0 0 1 1 0v2.793l1.146-1.147a.5.5 0 0 1 .708.708l-2 2a.499.499 0 0 1-.351.146h-.006a.498.498 0 0 1-.348-.144l-.003-.003-2-2Z" fill="#212121"/>
</svg>
